X:9
T:Cliffs of Moher
C:trad, Irish
S:from Ben Bolker
R:jig
M:6/8
K:A dorian
e2 \
| aga bag | eaf ged | c2 ABAG | EAF GED |
aga bag | eaf ged | c2 ABAG |1 EFG A2 e :|2 EFG A3 |
|: e3 dBA | e3 dBA | GAB dBA | GAB dBd |
|1 e3 dBA | e3 dBA | GAB dBA | EFG A3 |
:|2 e3 dee | cee Bee | EFG BAG | EDB, A,3 |]
